X:2
T:Fly Me To The Moon
C:Bart Howard
L:1/4
M:C
I:linebreak $
K:C
"Am" c3/2 B/ A G |"Dm" F3/2 G/ A c |"G7" B3/2 A/ G F |"C" E4 |$"F" A3/2 G/ F E |
"Bø" D3/2 E/ F A |"E7" ^G3/2 F/ E D |"Am" C2 ^C2 |$"Dm" D A A2 |"G7" z2 c B Ox/||
"C" G4 "F" x4|"Em" z2"A7" z ^C |$"Dm" D F F2 |"G7" z2 A G |"C" E4 |"Bø" z4"E7""_D.C. al Coda" x4 ||$
Ox/"Em" e4 |"A7" z2 z ^C |"Dm" D F F2 |"G7" z2 E E |"C" C4 | z4 |]

